!!!!SEGMENT: pl-sa--274-a-vii-34--001_zajaczkowski-roman--rorate-caeli.krn
!!!cenid: 17xx:358
!!!COM: Zajączkowski, Roman
!!!COM-rismid: pe41012326
!!!CDT: 1661-1710
!!!CNT: Polish
!!!OTL: Rorate caeli
!!!PDT: 1710
!!!AGN: Sacred
!!!SMS-siglum: PL-SA
!!!SMS-shelfmark: 274/ A VII 34
!!!SMS-shelfwork: 001 W
!!!NIFC-rismid: 1001092585
!!!URL-scan: http://bc.bdsandomierz.pl/dlibra/publication/1757/edition/1725/content
!!!ONB-nifc: UWAGA: części: Rorate caeli, Mittit ad virginem
**kern	**fb	**kern	**text	**kern	**text	**kern	**text	**kern	**text	**kern	**text
*part6	*	*part5	*part5	*part4	*part4	*part3	*part3	*part2	*part2	*part1	*part1
*group	*	*group1	*group1	*group1	*group1	*group1	*group1	*group1	*group1	*group1	*group1
*staff6	*	*staff5	*staff5	*staff4	*staff4	*staff3	*staff3	*staff2	*staff2	*staff1	*staff1
*Iorgan	*	*Ibass	*	*Itenor	*	*Ialto	*	*Ivox	*	*Ivox	*
*I"Organo	*	*I"Basso	*	*I"Tenore	*	*I"Alto	*	*I"Canto Secundo	*	*I"Canto 1	*
*clefC4	*	*clefF4	*	*clefC4	*	*clefC3	*	*clefC1	*	*clefC1	*
*k[]	*	*k[]	*	*k[b-e-]	*	*k[b-e-]	*	*k[b-e-]	*	*k[b-e-]	*
*B-:	*	*B-:	*	*B-:	*	*B-:	*	*B-:	*	*B-:	*
*M2/2	*	*M2/2	*	*M2/2	*	*M2/2	*	*M2/2	*	*M2/2	*
*met(c|)	*	*met(c|)	*	*met(c|)	*	*met(c|)	*	*met(c|)	*	*met(c|)	*
*2\right	*	*	*	*	*	*	*	*	*	*	*
!	!	!	!	!	!	!	!	!	!	!LO:TX:a:t=P:problem:w źródle "Rorate Intonet(u)r" zapisane na pięciolinii, przed pierwszym taktem	!
!	!	!	!	!	!	!	!	!LO:TX:a:t=P:problem:w źródle "Rorate Intonet(ur)" zapisane na pięciolinii, przed pierwszym taktem	!	!	!
!LO:TX:a:t=Miſsa Rorate Caeli a 4 Voc&colon; C. A. T. B.	!	!LO:TX:a:t=P:problem:w źródle intonacja zapisana w notacji quadrata	!	!LO:TX:a:t=P:problem:w źródle intonacja zapisana w notacji quadrata	!	!LO:TX:b:t=Rorate.	!	!LO:TX:a:t=Rorate \nIntonet(ur)	!	!LO:TX:a:t=Rorate \nIntonet(u)r	!
!	!	!LO:TX:a:t=A M. d. G.	!	!LO:TX:a:t=A M. d. G.	!	!LO:TX:a:t=A. M. D. G.	!	!	!	!LO:TX:a:t=A M D G.	!
!LO:TX:a:t=A M. d. G.	!	!	!	!	!	!	!	!	!	!	!
!LO:TX:a:t=P:problem:przed zapisem intonacji klucz basowy w funkcji tenorowego (tak wynika z zapisanych wysokości)	!	!LO:TX:a:t=P:problem:przed zapisem intonacji brak klucza i innych oznaczeń	!	!LO:TX:a:t=P:problem:w źródle bemole zapisane jeden nad drugim	!	!LO:TX:a:t=P:problem: bemole jeden nad drugim	!	!LO:TX:a:t=P:problem:bemole&colon; b-, ee-	!	!LO:TX:a:t=P:problem:bemole&colon; e-, b-, ee-, zaapisane jeden nad drugim	!
!LO:TX:a:t=P:problem:w źródle intonacja zapisana w notacji quadrata	!	!	!	!	!	!	!	!	!	!	!
!LO:TX:b:t=Ro	!	!	!	!	!	!	!	!	!	!	!
4F/	.	4FF/	Ro-	4F/	Ro-	1ryy	.	1ryy	.	1ryy	.
4G/	.	4GG/	.	4G/	.	.	.	.	.	.	.
!LO:TX:b:t=ra	!	!	!	!	!	!	!	!	!	!	!
4G/	.	4GG/	-ra-	4G/	-ra-	.	.	.	.	.	.
4d\	.	4D\	.	4d\	.	.	.	.	.	.	.
4f\	.	4F\	.	4f\	.	2ryy	.	2ryy	.	2ryy	.
!LO:TX:b:t=te	!	!LO:TX:a:t=P:problem:nie wyświetla się kreska taktowa za 4D	!	!	!	!	!	!	!	!	!
4d\	.	4D\	-te.	4d\	-te	.	.	.	.	.	.
*clefF4	*	*	*	*	*	*	*	*	*	*	*
=1-	=1-	=1	=1	=1	=1	=1	=1	=1	=1	=1	=1
*k[b-e-]	*	*k[b-e-]	*	*	*	*	*	*	*	*	*
*M2/2	*	*M2/2	*	*	*	*	*	*	*	*	*
*met(c|)	*	*met(c|)	*	*	*	*	*	*	*	*	*
*	*above	*	*	*	*	*	*	*	*	*	*
!	!	!LO:TX:a:t=P:problem:BB-, E-, B- jeden nad drugim	!	!	!	!	!	!	!	!	!
!LO:TX:a:t=P:problem:w źródle bemole przykluczowe zapisane jeden nad drugim	!	!	!	!	!	!	!	!	!	!LO:TX:a:t=Solo	!
!	!	!	!	!LO:TX:a:t=P:problem:nie wyświetla się kreska taktowa przed 00r	!	!	!	!	!	!	!
2.GG/	4 2	00r	.	00r	.	00r	.	1r	.	8r	.
.	- 6	.	.	.	.	.	.	.	.	8g\	Ro-
.	.	.	.	.	.	.	.	.	.	(>16b-\LL	-ra-
.	.	.	.	.	.	.	.	.	.	16a\)	.
.	.	.	.	.	.	.	.	.	.	(>16b-\	-te
.	.	.	.	.	.	.	.	.	.	16cc\JJ)	.
.	.	.	.	.	.	.	.	.	.	(>16b-\LL	cae-
.	.	.	.	.	.	.	.	.	.	16a\	.
.	.	.	.	.	.	.	.	.	.	16b-\	.
.	.	.	.	.	.	.	.	.	.	16cc\JJ)	.
4FF#X/	.	.	.	.	.	.	.	.	.	(>8.b-\L	.
.	.	.	.	.	.	.	.	.	.	16a\)J	.
=2	=2	=2	=2	=2	=2	=2	=2	=2-	=2	=2	=2
*	*	*	*	*	*	*	*	*2\right	*	*	*
4GG/	.	.	.	.	.	.	.	8r	.	8g\	-li
!	!	!	!	!	!	!	!	!	!	!	!
.	.	.	.	.	.	.	.	8g\	Rorate	8b-\	Ro-
2BB-/	.	.	.	.	.	.	.	16b-\LL	.	(>16dd\LL	-ra-
.	.	.	.	.	.	.	.	16a\JJ	.	16cc\)	.
.	.	.	.	.	.	.	.	16b-\LL	.	(>16dd\	-te
.	.	.	.	.	.	.	.	16cc\JJ	.	16ee-\JJ)	.
.	.	.	.	.	.	.	.	16b-\LL	cae-	(>16dd\LL	cae-
.	.	.	.	.	.	.	.	16a\	.	16cc\	.
.	.	.	.	.	.	.	.	16b-\	.	16dd\	.
.	.	.	.	.	.	.	.	16cc\JJ	.	16ee-\JJ)	.
4AA/	- 2	.	.	.	.	.	.	8.b-\L	.	(>8.dd\L	.
.	4	.	.	.	.	.	.	16a\Jk	-li	16cc\J)	.
.	6	.	.	.	.	.	.	.	.	.	.
=3	=3	=3	=3	=3	=3	=3	=3	=3	=3	=3	=3
4.BB-/	.	.	.	.	.	.	.	8b-\	ro-	8b-\	-li
.	.	.	.	.	.	.	.	8b-\	ra-	8dd\	Ro-
.	.	.	.	.	.	.	.	16dd\LL	-te	(>16ff\LL	-ra-
.	.	.	.	.	.	.	.	16cc\JJ	.	16ee-\)	.
8C/	X -	.	.	.	.	.	.	16dd\LL	.	(>16ff\	-te
.	.	.	.	.	.	.	.	16ee-\JJ	.	16gg\JJ)	.
4D/	- 6	.	.	.	.	.	.	16dd\LL	cae-	(>16ff\LL	cae-
.	.	.	.	.	.	.	.	16cc\	.	16ee-\	.
.	.	.	.	.	.	.	.	16dd\	.	16ff\	.
.	.	.	.	.	.	.	.	16ee-\JJ	.	16gg\JJ)	.
4C/	4 2 -	.	.	.	.	.	.	8.dd\L	.	(>8.ff\L	.
.	6	.	.	.	.	.	.	16cc\Jk	-li	16ee-\J)	.
=4	=4	=4	=4	=4	=4	=4	=4	=4	=4	=4	=4
4D/	.	.	.	.	.	.	.	8dd\	ro	8dd\	-li
.	.	.	.	.	.	.	.	8dd\	-ra-	8ff\	Ro-
8BB-/L	.	.	.	.	.	.	.	8dd\	-te	8ff\	-ra-
8C/J	X -	.	.	.	.	.	.	8cc\	.	8ee-\	-te
8D\L	.	.	.	.	.	.	.	16b-\LL	cae-	(>16dd\LL	cae-
.	.	.	.	.	.	.	.	16cc\	.	16ee-\	.
8E-\J	.	.	.	.	.	.	.	16b-\	.	16dd\	.
.	.	.	.	.	.	.	.	16a\JJ	.	16cc\JJ)	.
!	!	!	!	!	!	!	!	!	!	!LO:LB:g=original	!
4F\	6- 4	.	.	.	.	.	.	8b-\	-li	8b-\	-li
.	.	.	.	.	.	.	.	16b-\LL	ro-	(>16dd\LL	ro-
.	.	.	.	.	.	.	.	16cc\JJ	.	16ee-\JJ)	.
!	!	!	!	!	!	!	!	!LO:LB:g=original	!	!	!
=5	=5	=5	=5	=5	=5	=5	=5	=5	=5	=5	=5
8BB-/L	.	00r	.	00r	.	00r	.	8dd\	-ra-	8ff\	-ra-
8C/J	X -	.	.	.	.	.	.	8cc\	-te	8ee-\	-te
8D\L	.	.	.	.	.	.	.	16b-\LL	caeli	(>16dd\LL	cae-
.	.	.	.	.	.	.	.	16cc\	.	16ee-\	.
8E-\J	.	.	.	.	.	.	.	16b-\	.	16dd\	.
.	.	.	.	.	.	.	.	16a\JJ	.	16cc\JJ)	.
!LO:LB:g=original	!	!	!	!	!	!	!	!	!	!	!
8F\L	6- 4	.	.	.	.	.	.	8b-\	.	8b-\	-li
*	*	*	*	*	*	*	*	*	*ij	*	*
8BB-\J	.	.	.	.	.	.	.	8g\	ro-	8b-\	ro-
8GG/L	.	.	.	.	.	.	.	8b-\	-ra-	8.dd\	-ra-
8AA/J	.	.	.	.	.	.	.	8a\	-te	.	.
.	.	.	.	.	.	.	.	.	.	16cc\	-te
=6	=6	=6	=6	=6	=6	=6	=6	=6	=6	=6	=6
8BB-/L	.	.	.	.	.	.	.	8g/	cae-	8b-\	cae-
8C/J	6 -	.	.	.	.	.	.	16g/	-li	16b-\	-li
*	*	*	*	*	*	*	*	*	*Xij	*	*
.	.	.	.	.	.	.	.	16g/	ro-	16b-\	ro-
8GG/L	.	.	.	.	.	.	.	8b-\	-ra-	8dd\	-ra-
8AA/J	.	.	.	.	.	.	.	8a\	-te	8cc\	-te
2GG/	.	.	.	.	.	.	.	4.g/	cae-	4.b-\	cae-
.	.	.	.	.	.	.	.	8b-\	-li	8dd\	-li
=7	=7	=7	=7	=7	=7	=7	=7	=7	=7	=7	=7
4C/	X 5	.	.	.	.	.	.	16cc\LL	de-	(>16ee-\LL	de-
.	X 6	.	.	.	.	.	.	16b-\	.	16dd\	.
.	.	.	.	.	.	.	.	16a\	.	16cc\	.
.	.	.	.	.	.	.	.	16g\JJ	.	16b-\JJ)	.
4D/	X #	.	.	.	.	.	.	8.f#X/	-su-	8.a\	.
.	.	.	.	.	.	.	.	16f#/	-per	16a\	-su-
4.GG/	.	.	.	.	.	.	.	8g/	.	8g/	-per
.	.	.	.	.	.	.	.	8b-\	ro-	8dd\	ro-
.	.	.	.	.	.	.	.	8b-\	-ra-	8dd\	-ra-
8AA/	.	.	.	.	.	.	.	8a\	-te	8cc\	-te
=8	=8	=8	=8	=8	=8	=8	=8	=8	=8	=8	=8
4BB-/	.	.	.	.	.	.	.	8g/	cae-	8b-\	cae-
.	.	.	.	.	.	.	.	8g/	-li	8b-\	-li
4C/	X 6	.	.	.	.	.	.	16cc\LL	de-	16ee-\LL	de-
.	.	.	.	.	.	.	.	16b-\	.	16dd\	.
.	.	.	.	.	.	.	.	16a\	.	16cc\	.
.	.	.	.	.	.	.	.	16g\JJ	.	16b-\JJ	.
4D/	X 43	.	.	.	.	.	.	8.f#X/	-su-	8.a\	.
.	.	.	.	.	.	.	.	16f#/	.	16a\	-su-
4GG/	.	.	.	.	.	.	.	4g/	-per	4g/	-per.
!	!	!	!	!	!	!	!	!LO:LB:g=original	!	!	!
=9	=9	=9	=9	=9	=9	=9	=9	=9-	=9	=9-	=9
!LO:TX:b:t=Baſso Solo	!	!LO:TX:a:t=Solo	!	!	!	!	!	!	!	!	!
2BB-/	.	8r	.	00r	.	00r	.	00r	.	00r	.
.	.	8BB-/	Ro-	.	.	.	.	.	.	.	.
.	.	8B-\	-ra-	.	.	.	.	.	.	.	.
.	.	16B-\	-te	.	.	.	.	.	.	.	.
.	.	16B-\	ro-	.	.	.	.	.	.	.	.
4E-X\	.	4.B-\	-ra-	.	.	.	.	.	.	.	.
4F\	4- 2	.	.	.	.	.	.	.	.	.	.
!	!	!LO:TX:a:t=P:problem:nie wyświetla się kreska taktowa za 8A	!	!	!	!	!	!	!	!	!
.	.	8A\	-te	.	.	.	.	.	.	.	.
=10-	=10	=10	=10	=10	=10	=10	=10	=10	=10	=10	=10
4BB-/	.	4B-\	cae-	.	.	.	.	.	.	.	.
4GG/	X -	4B-\	-li	.	.	.	.	.	.	.	.
4.E-X\	.	8r	.	.	.	.	.	.	.	.	.
*	*	*	*ij	*	*	*	*	*	*	*	*
.	4 2	8G\	ro-	.	.	.	.	.	.	.	.
.	.	8G\	-ra-	.	.	.	.	.	.	.	.
8D\	x #	8A\	-te	.	.	.	.	.	.	.	.
=11	=11	=11	=11	=11	=11	=11	=11	=11	=11	=11	=11
8GG/L	.	8B-\L	cae-	.	.	.	.	.	.	.	.
16BB-/L	# 5	16A\L	.	.	.	.	.	.	.	.	.
16C/JJ	# 4	16G\JJ	.	.	.	.	.	.	.	.	.
4D/	X #	4F#X\	-li	.	.	.	.	.	.	.	.
*	*	*	*Xij	*	*	*	*	*	*	*	*
!LO:LB:g=original	!	!	!	!	!	!	!	!	!	!	!
8GG/L	.	16G\LL	de-	.	.	.	.	.	.	.	.
.	.	16F#\	.	.	.	.	.	.	.	.	.
8BB-/	.	16E-\	.	.	.	.	.	.	.	.	.
.	.	16D\JJ	.	.	.	.	.	.	.	.	.
8C/	.	16E-\LL	.	.	.	.	.	.	.	.	.
.	.	16D\	.	.	.	.	.	.	.	.	.
8F/J	X 43	16C\	.	.	.	.	.	.	.	.	.
.	.	16BB-\JJ	.	.	.	.	.	.	.	.	.
!	!	!LO:LB:g=original	!	!	!	!	!	!	!	!	!
=12	=12	=12	=12	=12	=12	=12	=12	=12	=12	=12	=12
4BB-/	.	8F\	.	.	.	.	.	.	.	.	.
.	.	16BB-/	-Su-	.	.	.	.	.	.	.	.
.	.	16BB-/	-per	.	.	.	.	.	.	.	.
4GG/	.	8r	.	.	.	.	.	.	.	.	.
.	.	8G\	Ro-	.	.	.	.	.	.	.	.
4E-X\	.	4G\	-ra-	.	.	.	.	.	.	.	.
4D\	X #	4A\	-te	.	.	.	.	.	.	.	.
=13	=13	=13	=13	=13	=13	=13	=13	=13	=13	=13	=13
8GG/L	.	8B-\L	cae-	1r	.	1r	.	1r	.	1r	.
16BB-/L	# 5	16A\L	.	.	.	.	.	.	.	.	.
16C/JJ	# 4	16G\JJ	.	.	.	.	.	.	.	.	.
4D/	X #	4F#X\	-li	.	.	.	.	.	.	.	.
8BB-/L	.	16G\LL	de-	.	.	.	.	.	.	.	.
.	.	16F#\	.	.	.	.	.	.	.	.	.
8GG/J	.	16E-\	.	.	.	.	.	.	.	.	.
.	.	16D\JJ	.	.	.	.	.	.	.	.	.
4BB-/	.	16BB-/LL	.	.	.	.	.	.	.	.	.
.	.	16C/	.	.	.	.	.	.	.	.	.
.	.	16D/	.	.	.	.	.	.	.	.	.
.	.	16E-/JJ	.	.	.	.	.	.	.	.	.
!	!	!	!	!	!	!	!	!LO:LB:g=original	!	!	!
=14	=14	=14	=14	=14	=14	=14	=14	=14-	=14	=14-	=14
*M3/4	*	*M3/4	*	*M3/4	*	*M3/4	*	*M3/4	*	*M3/4	*
!LO:TX:b:t=Alt Ten	!	!	!	!	!	!	!	!LO:N:vis=00	!	!LO:N:vis=00	!
2F\	X 43	4.F\	-Su-	4r	.	4r	.	0.r	.	0.r	.
.	.	.	.	4r	.	4r	.	.	.	.	.
.	.	8F\	.	.	.	.	.	.	.	.	.
4BB-/	.	4BB-/	-per.	(>8B-\L	Et	(>8d\L	Et	.	.	.	.
.	.	.	.	8c\J)	.	8e-\J)	.	.	.	.	.
=15	=15	=15-	=15	=15	=15	=15	=15	=15	=15	=15	=15
!	!	!LO:N:vis=00	!	!	!	!	!	!	!	!	!
(<4BB-/	.	0.r	.	4d\	Nu-	4f\	nu-	.	.	.	.
4BB-/)	.	.	.	4d\	-bes	4f\	-bes	.	.	.	.
8C\L	.	.	.	8c\	plu-	8e-\	plu-	.	.	.	.
16D\L	.	.	.	8B-\	-ant	8d\	-ant	.	.	.	.
16E-X\JJ	.	.	.	.	.	.	.	.	.	.	.
=16	=16	=16	=16	=16	=16	=16	=16	=16	=16	=16	=16
!	!	!LO:TX:a:t=P:problem:błąd renderowania - wyświetla się pauza, mimo zamienienia jej na pauzę 4-taktową	!	!	!	!	!	!	!	!	!
4F\	.	.	.	4A\	iuſ-	4c\	iuſ-	.	.	.	.
4F\	.	.	.	4A\	-tu(m)	4c\	-tum	.	.	.	.
*	*	*	*	*	*	*	*ij	*	*	*	*
8C/L	X -	.	.	(>8c\L	et	(>8e-\L	et	.	.	.	.
8BB-/J	.	.	.	8d\J)	.	8f\J)	.	.	.	.	.
=17	=17	=17	=17	=17	=17	=17	=17	=17	=17	=17	=17
4E-X\	X 10	.	.	4B-\	nu-	4g\	nu-	.	.	.	.
4E-\	.	.	.	4e-\	-bes	4g\	-bes	.	.	.	.
8BB-/L	.	.	.	8d\	plu-	8f\	plu-	.	.	.	.
8C/J	X -	.	.	8c\	-ant	8e-\	-ant	.	.	.	.
!LO:LB:g=original	!	!	!	!	!	!	!	!	!	!	!
=18	=18	=18	=18	=18	=18	=18	=18	=18	=18	=18	=18
!	!	!	!	!LO:SIC:s=4Bn	!	!	!	!LO:N:vis=00	!	!LO:N:vis=00	!
4G\	X n	.	.	4B#X\	iuſ-	4d\	iuſ-	0.r	.	0.r	.
4G\	.	.	.	4B#\	-tum	4d\	-tum	.	.	.	.
*	*	*	*	*	*	*	*Xij	*	*	*	*
4E-X\	.	.	.	4e-\	et	4g\	et	.	.	.	.
=19	=19	=19	=19	=19	=19	=19	=19	=19	=19	=19	=19
*	*	*	*	*2\right	*	*2\right	*	*	*	*	*
!LO:SIC:s=2BBn	!	!LO:N:vis=00	!	!	!	!	!	!	!	!	!
2BB#X/	.	0.r	.	2d\	Nu-	2f\	Nu-	.	.	.	.
4C/	x -	.	.	4c\	-bes	4e-\	-bes	.	.	.	.
!	!	!	!	!LO:LB:g=original	!	!	!	!	!	!	!
=20	=20	=20	=20	=20-	=20	=20-	=20	=20	=20	=20	=20
!	!	!	!	!LO:SIC:s=4Bn	!	!	!	!	!	!	!
2G\	X #	.	.	4B#X\	plu-	4d\	plu-	.	.	.	.
.	.	.	.	4B#\	-ant	4d\	-ant	.	.	.	.
4E-X\	.	.	.	4e-\	et	4g\	et	.	.	.	.
=21-	=21-	=21	=21	=21-	=21	=21-	=21	=21	=21	=21	=21
!LO:SIC:s=2BBn	!	!	!	!	!	!	!	!	!	!	!
2BB#X/	.	.	.	2d\	Nu-	2f\	nu-	.	.	.	.
4C/	X -	.	.	4c\	-bes	4e-\	-bes	.	.	.	.
=22-	=22-	=22	=22	=22	=22	=22	=22	=22	=22	=22	=22
!	!	!	!	!	!	!	!	!LO:N:vis=0	!	!LO:N:vis=0	!
4D\	- 6	.	.	(4B-X\	plu-	4d\	plu-	1.r	.	1.r	.
4E-\	6 4	.	.	4A\	-ant	(>4e-\	-ant	.	.	.	.
4BB-y/	.	.	.	4B-\)	.	4d\)	.	.	.	.	.
=23	=23	=23	=23	=23	=23	=23	=23	=23	=23	=23	=23
4E-\	X - 5	2.r	.	(>4B-\	iu-	(<4d\	iu-	.	.	.	.
.	X X 7	.	.	.	.	.	.	.	.	.	.
.	# 5 3	.	.	.	.	.	.	.	.	.	.
2F\	X 6 4	.	.	2c\)	.	2c/)	.	.	.	.	.
.	# 5 3	.	.	.	.	.	.	.	.	.	.
!	!	!	!	!	!	!LO:LB:g=original	!	!	!	!LO:LB:g=original	!
=24-	=24-	=24	=24	=24	=24	=24	=24	=24-	=24	=24-	=24
*	*	*	*	*	*	*	*	*	*	*k[b-e-]	*
*M2/2	*	*M2/2	*	*M2/2	*	*M2/2	*	*M2/2	*	*M2/2	*
*met(c|)	*	*met(c|)	*	*met(c|)	*	*met(c|)	*	*met(c|)	*	*met(c|)	*
!LO:TX:b:t=Tutti	!	!	!	!	!	!	!	!	!	!	!
4BB-/	.	8r	.	8B-\	-ſtum	4B-/	-ſtu(m)	8r	.	8r	.
!	!	!	!	!	!	!	!	!	!	!LO:TX:b:t=tutti	!
.	.	8B-\	A-	8B-\	a-	.	.	16b-\LL	A-	(>16dd\LL	A-
.	.	.	.	.	.	.	.	16cc\JJ	-pe-	16ee-\JJ)	.
4AA/	# 6	8A\	-pe-	8c\	-pe-	4f\	a-	8dd\	-ri-	8ff\	-pe-
.	.	8A\	-ri-	8c\	-ri-	.	.	8b-\	-a-	(>16ee-\LL	-ri-
.	.	.	.	.	.	.	.	.	.	16dd\JJ)	.
4BB-/	.	4B-\	-a-	8d\	-a-	4f\	-pe-	8f/	-tur	(>16b-\LL	-a-
.	.	.	.	.	.	.	.	.	.	16cc\)	.
.	.	.	.	8d\	-tur	.	.	8b-\	ter-	(>16dd\	-tur
.	.	.	.	.	.	.	.	.	.	16ee-\JJ)	.
4FF/	.	4F#X\	-tur	4c\	ter-	4f\	-ri-	8cc\	.	8ff\	ter-
.	.	.	.	.	.	.	.	8b-\	-ra	8b-\	-ra
=25	=25	=25	=25	=25	=25	=25	=25	=25	=25	=25	=25
4BB-/	.	8r	.	8B-\	-ra	4f\	-a-	8r	.	8r	.
*	*	*	*	*	*ij	*	*	*	*ij	*	*ij
.	.	8B-\	a-	8B-\	a-	.	.	16b-\LL	a-	16dd\LL	a-
.	.	.	.	.	.	.	.	16cc\JJ	-pe-	16ee-\JJ	.
4AA/	# 6	8A\	-pe-	8c\	-pe-	4f\	-tur	8dd\	-ri-	8ff\	-pe-
.	.	8A\	-ri-	8c\	-ri-	.	.	8b-\	-a-	16ee-\LL	-ri-
.	.	.	.	.	.	.	.	.	.	16dd\JJ	.
4BB-/	.	8B-\	-a-	8d\	-a-	4f\	ter-	8f/	-tur	16b-\LL	-a-
.	.	.	.	.	.	.	.	.	.	16cc\	.
.	.	8B-\	-tur	8d\	-tur	.	.	8b-\	ter-	16dd\	-tur
.	.	.	.	.	.	.	.	.	.	16ee-\JJ	.
4FF/	.	8F\	ter-	8B-\	ter-	4f\	-ra	8cc\	.	8ff\	ter-
.	.	8F\	-ra	8B-\	-ra	.	.	8b-\	-ra	8b-\	-ra
*	*	*	*	*	*	*	*	*	*Xij	*	*
!	!	!LO:LB:g=original	!	!	!	!	!	!	!	!	!
=26	=26	=26	=26	=26	=26	=26	=26	=26	=26	=26	=26
8r	.	8r	.	8r	.	4r	.	8r	.	8r	.
*	*	*	*ij	*	*	*	*	*	*	*	*
8B-\	.	8B-\	a-	8B-\	a-	.	.	8b-\	a-	8b-\	a-
*	*	*	*	*	*	*	*ij	*	*	*	*
8A\L	# 6	8A\	-pe-	8c\	-pe-	4f\	a-	8a\	-pe-	8dd\	-pe-
8A\J	.	8A\	-ri-	8c\	-ri-	.	.	8a\	-ri-	8ff\	-ri-
!LO:LB:g=original	!	!	!	!	!	!	!	!	!	!	!
4B-\	.	4B-\	-a-	8d\	-a-	4f\	-pe-	8b-\	-a-	8dd\	-a-
.	.	.	.	8d\	-tur	.	.	8b-\	-tur	8b-\	-tur
4F\	.	4F\	-tur	4c\	ter-	4f\	-ri-	8a\	ter-	8ff\	ter-
.	.	.	.	.	.	.	.	8b-\	-ra	8b-\	-ra
=27	=27	=27	=27	=27	=27	=27	=27	=27	=27	=27	=27
*	*	*	*	*	*	*	*	*	*ij	*	*
8r	.	8r	.	8B-\	-ra	4f\	-a-	8r	.	8r	.
8B-\	.	8B-\	a-	8B-\	a-	.	.	16b-\LL	a-	16dd\LL	a-
.	.	.	.	.	.	.	.	16cc\JJ	-pe-	16ee-\JJ	.
!	!	!	!	!LO:LB:g=original	!	!	!	!	!	!	!
8A\L	.	8A\	-pe-	8c\	-pe-	4f\	-tur	8dd\	-ri-	8ff\	-pe-
.	.	.	.	.	.	.	.	.	.	.	.
8A\J	X 6#	8A\	-ri-	8c\	-ri-	.	.	8b-\	-a-	16ee-\LL	-ri-
.	.	.	.	.	.	.	.	.	.	16dd\JJ	.
4B-\	.	8B-\	-a-	8d\	-a-	4f\	ter-	8f/	-tur	16b-\LL	-a-
.	.	.	.	.	.	.	.	.	.	16cc\	.
.	.	8B-\	-tur	8d\	-tur	.	.	8b-\	ter-	16dd\	-tur
.	.	.	.	.	.	.	.	.	.	16ee-\JJ	.
4F\	.	8F\	ter-	8c\	ter-	4f\	-ra	8a\	.	8ff\	ter-
.	.	8F\	-ra	8c\	-ra	.	.	8b-\	-ra	8b-\	-ra
*	*	*	*Xij	*	*	*	*Xij	*	*Xij	*	*Xij
!	!	!	!	!	!	!	!	!LO:LB:g=original	!	!	!
=28	=28	=28	=28	=28	=28	=28	=28	=28	=28	=28	=28
4G\	.	8r	.	4r	.	8r	.	00r	.	4r	.
.	.	8G\	a-	.	.	8g\	a-	.	.	.	.
4F#X\	X 6	8F#X\	-pe-	4d\	a-	8a\	-pe-	.	.	4dd\	a-
.	.	8F#\	-ri-	.	.	8a\	-ri-	.	.	.	.
4G\	.	4G\	-a-	8B-\	-pe-	(>16g\LL	-a-	.	.	4dd\	-pe-
.	.	.	.	.	.	16f\)	.	.	.	.	.
.	.	.	.	8B-\	-ri-	(>16g\	-tur	.	.	.	.
.	.	.	.	.	.	16a\JJ)	.	.	.	.	.
4D/	.	4D\	-tur	8A\	-a-	(>16f#X\LL	ter-	.	.	4dd\	-riatur-
.	.	.	.	.	.	16e-\JJ)	.	.	.	.	.
.	.	.	.	8A\	-tur	8d\	-ra	.	.	.	.
!	!	!	!	!	!	!	!	!	!	!LO:LB:g=original	!
=29	=29	=29-	=29	=29	=29	=29	=29	=29	=29	=29	=29
4G\	.	8r	.	4B-\	a-	8r	.	.	.	4dd\	a-
*	*	*	*	*	*	*	*ij	*	*	*	*
.	.	8G\	a-	.	.	8g\	a-	.	.	.	.
4F#X\	X 6	8F#X\	-pe-	8B-\	-pe-	8a\	-pe-	.	.	4dd\	-tur
.	.	8F#\	-ri-	8d\	-ri-	8a\	-ri-	.	.	.	.
4G\	.	8G\	-a-	8B-\	-a-	16g\LL	-a-	.	.	4dd\	ter-
.	.	.	.	.	.	16f\	.	.	.	.	.
.	.	8G\	-tur	8B-\	-tur	16g\	-tur	.	.	.	.
.	.	.	.	.	.	16a\JJ	.	.	.	.	.
4D\	.	8D/	ter-	8A\	ter-	16f#X\LL	ter-	.	.	4dd\	-ra
.	.	.	.	.	.	16e-\JJ	.	.	.	.	.
.	.	8D/	-ra	8A\	-ra	8d\	-ra	.	.	.	.
=30	=30	=30-	=30	=30	=30	=30	=30	=30	=30	=30	=30
8r	.	8r	.	4r	.	8r	.	.	.	4r	.
*	*	*	*ij	*	*	*	*	*	*	*	*
8GG/	.	8G\	a-	.	.	8g\	a-	.	.	.	.
*	*	*	*	*	*	*	*	*	*	*	*ij
8FF#X/L	X 6	8F#\	-pe-	4d\	a-	8a\	-pe-	.	.	4dd\	a-
8FF#/J	.	8F#\	-ri-	.	.	8a\	-ri-	.	.	.	.
4GG/	.	4G\	-a-	8B-\	-pe-	8g\	-a-	.	.	4dd\	-pe-
.	.	.	.	8B-\	-ri-	8g\	-tur	.	.	.	.
4DD/	.	4D\	-tur	8A\	-a-	16f\LL	ter-	.	.	4dd\	-ri-
.	.	.	.	.	.	16e-\JJ	.	.	.	.	.
.	.	.	.	8A\	-tur	8d\	-ra	.	.	.	.
!	!	!	!	!	!	!LO:LB:g=original	!	!	!	!	!
=31	=31	=31	=31	=31	=31	=31	=31	=31	=31	=31	=31
8r	.	8r	.	4B-\	a-	8r	.	.	.	4dd\	-a-
8GG/	.	8G\	a-	.	.	8g\	a-	.	.	.	.
8FF#X/L	X 6	8F\	-pe-	8B-\	-pe-	8a\	-pe-	.	.	4dd\	-tur
8FF#/J	.	8F\	-ri-	8d\	-ri-	8a\	-ri-	.	.	.	.
4GG/	.	8G\	-a-	8B-\	-a-	16g\LL	-a-	.	.	4dd\	ter-
.	.	.	.	.	.	16f\	.	.	.	.	.
.	.	8G\	-tur	8B-\	-tur	16g\	-tur	.	.	.	.
.	.	.	.	.	.	16a\JJ	.	.	.	.	.
!	!	!LO:LB:g=original	!	!	!	!	!	!	!	!	!
4DD/	.	8D/	ter-	8A/	ter-	16f\LL	ter-	.	.	4dd\	-ra
*	*	*	*	*	*	*	*	*	*	*	*Xij
.	.	.	.	.	.	16e-\JJ	.	.	.	.	.
.	.	8D/	-ra	8A/	-ra	8d\	-ra	.	.	.	.
*	*	*	*Xij	*	*Xij	*	*Xij	*	*	*	*
!LO:LB:g=original	!	!	!	!	!	!	!	!	!	!	!
=32	=32	=32	=32	=32	=32	=32	=32	=32-	=32	=32	=32
4r	.	4r	.	4r	.	4r	.	4r	.	4r	.
4GG/	.	4GG/	et	4B-\	et	4g\	et	4b-\	et	4dd\	et
4.GG/	.	4.GG/	ger-	4.d\	ger-	4.d\	ger-	4.g/	ger-	4.b-\	ger-
8AA/	.	8AA/	-mi-	8c\	-mi-	8e-\	-mi-	8a\	-mi-	8cc\	-mi-
=33	=33	=33	=33	=33	=33	=33	=33	=33	=33	=33	=33
*	*	*	*	*	*	*	*	*	*	*2\right	*
4BB-/	.	4BB-/	-net	4B-\	-net	4d\	-net	4b-\	-net	4dd\	-net
4C/	X -	8C/	Sal-	8G/	Sal-	8g\	Sal-	8.a\	Sal-	8.cc\	Sal-
.	.	8GG/	-ua-	8B-\	-ua-	8g\	-ua-	.	.	.	.
.	.	.	.	.	.	.	.	16g/	-ua-	16b-\	-ua-
2D/	X 43	2D/	-to-	2A\	-to-	2f#X\	-to-	2f#X/	-to-	2a\	-to-
=34-	=34-	=34	=34	=34	=34	=34	=34	=34	=34	=34-	=34
*M3/4	*	*M3/4	*	*M3/4	*	*M3/4	*	*M3/4	*	*M3/4	*
!LO:TX:b:t=Canto.	!	!	!	!	!	!	!	!	!	!	!
2GG/	.	4GG/	-rem	4B-\	-rem.	4g\	-rem	2g/	-rem	2g/	-rem
.	.	4r	.	4r	.	4r	.	.	.	.	.
4BB-/	.	4r	.	4r	.	4r	.	4dd\	et	4ff\	et
=35	=35	=35-	=35	=35-	=35	=35	=35	=35	=35	=35	=35
!	!	!LO:N:vis=00	!	!LO:N:vis=0	!	!LO:N:vis=0	!	!	!	!LO:TX:b:t=Solo	!
4.BB-/	.	0.r	.	1.r	.	1.r	.	4.dd\	ger-	4.ff\	ger-
8C/	X -	.	.	.	.	.	.	8cc\	-mi-	8ee-\	-mi-
.	.	.	.	.	.	.	.	.	.	.	-net
4D/	X 6-	.	.	.	.	.	.	8b-\	-net	8dd\	-net
*	*	*	*	*	*	*	*	*	*ij	*	*ij
.	.	.	.	.	.	.	.	8dd\	et	8ff\	et
=36	=36	=36	=36	=36	=36	=36	=36	=36	=36	=36	=36
4.BB-/	.	.	.	.	.	.	.	4.dd\	ger-	4.ff\	ger-
8C/	x -	.	.	.	.	.	.	8cc\	-mi-	8ee-\	-mi-
4D/	X 6-	.	.	.	.	.	.	4b-\	-net	4dd\	-net
*	*	*	*	*	*	*	*	*	*Xij	*	*Xij
=37	=37	=37	=37	=37	=37	=37	=37	=37	=37	=37	=37
4C/	X -	.	.	2.r	.	2.r	.	8cc\	Sal-	8ee-\	Sal-
.	.	.	.	.	.	.	.	8b-\	-ua-	8dd\	-ua-
!	!	!	!	!	!	!	!	!LO:TX:a:t=P:problem:nie wyświetla się kreska taktowa za 2a	!	!	!
8D/L	.	.	.	.	.	.	.	2a\	-to-	8cc\L	-to-
8E-/J	.	.	.	.	.	.	.	.	.	8b-\	.
4F\	x 43	.	.	.	.	.	.	.	.	8cc\	.
!	!	!	!	!	!	!	!	!	!	!LO:TX:a:t=P:problem:nie wyświetla się kreska taktowa za 8dd	!
.	.	.	.	.	.	.	.	.	.	8dd\J	.
=38-	=38-	=38	=38	=38-	=38	=38-	=38	=38	=38	=38	=38
2BB-/	.	.	.	4r	.	4r	.	4b-\	-rem	4b-\	-rem.
.	.	.	.	4r	.	4r	.	4r	.	4r	.
4C/	X -	.	.	4e-\	Et	4g\	et	4r	.	4r	.
=39	=39	=39	=39	=39	=39	=39	=39	=39-	=39	=39-	=39
!	!	!LO:N:vis=0	!	!	!	!	!	!LO:N:vis=0	!	!LO:N:vis=0	!
4.C/	X -	1.r	.	4.e-\	ger-	4.g\	ger-	1.r	.	1.r	.
8D\	.	.	.	8d\	-mi-	8f\	-mi-	.	.	.	.
4E-X\	X 6	.	.	8c\	-net	8e-\	-net	.	.	.	.
.	.	.	.	8c\	et	8g\	et	.	.	.	.
=40-	=40-	=40	=40	=40	=40	=40-	=40	=40	=40	=40	=40
4.C/	x -	.	.	4.e-\	ger-	4.g\	ger-	.	.	.	.
8D\	.	.	.	8d\	-mi-	8f\	-mi-	.	.	.	.
4E-X\	X 6	.	.	4c\	-net	4e-\	-net	.	.	.	.
!LO:LB:g=original	!	!	!	!	!	!	!	!	!	!	!
=41-	=41-	=41	=41	=41-	=41	=41-	=41	=41	=41	=41	=41
4F\	.	2.r	.	8c\	Sal-	8f\	Sal-	2.r	.	2.r	.
.	.	.	.	8c\	-ua-	8e-\	-ua-	.	.	.	.
!	!	!	!	!LO:SIC:s=2Bn	!	!LO:SIC:s=2	!	!	!	!	!
4G\	43 #	.	.	2B#X\	-to-	4d\	-to-	.	.	.	.
4GG/	.	.	.	.	.	4ryy	.	.	.	.	.
=42	=42	=42-	=42	=42	=42	=42	=42	=42-	=42	=42	=42
!LO:TX:b:t=Tutti	!	!	!	!	!	!	!	!	!	!	!
2C/	X -	4r	.	2c\	-rem	2c/	-rem	4r	.	4r	.
.	.	4r	.	.	.	.	.	4r	.	4r	.
!	!	!LO:TX:a:t=P:problem:brak tekstu słownego	!	!	!	!	!	!	!	!LO:TX:b:t=tutti	!
4BB-/	.	4BB-/	.	4d\	et	4f\	et	4dd\	et	4ff\	et
=43	=43	=43	=43	=43-	=43	=43	=43	=43	=43	=43	=43
2.BB-/	.	4.B-\	.	4.B-\	ger-	4.d\	ger-	4.dd\	ger-	4.ff\	ger-
.	.	8B-\	.	8c\	-mi-	8e-\	-mi-	8cc\	-mi-	8ee-\	-mi-
.	.	8BB-/	.	8d\	-net	8f\	-net	8b-\	-net	8dd\	-net
*	*	*	*	*	*	*	*	*	*ij	*	*ij
.	.	8BB-/	.	8B-\	et	8f\	et	8dd\	et	8ff\	et
!	!	!	!	!	!	!LO:LB:g=original	!	!LO:LB:g=original	!	!	!
=44	=44	=44	=44	=44	=44	=44	=44	=44	=44	=44	=44
2.BB-/	.	4.B-\	.	4.d\	ger-	4.d\	ger-	4.dd\	ger-	4.ff\	ger-
.	.	8B-\	.	8c\	-mi-	8e-\	-mi-	8cc\	-mi-	8ee-\	-mi-
.	.	4BB-/	.	4B-\	-net	4f\	-net	4b-\	-net	4dd\	-net
*	*	*	*	*	*	*	*	*	*Xij	*	*Xij
=45	=45	=45	=45	=45	=45	=45	=45	=45	=45	=45	=45
*	*	*2\right	*	*	*	*	*	*	*	*	*
4E-X\	.	8E-\	.	8c\	Sal-	8g\	Sal-	8cc\	Sal-	8ee-\	Sal-
.	.	8C/	.	8d\	-ua-	8f\	-ua-	8b-\	-ua-	8dd\	-ua-
4F\	.	2F\	.	2A/	-to-	2f\	-to-	2a\	-to-	2cc\	-to-
4FF/	.	.	.	.	.	.	.	.	.	.	.
=46	=46	=46-	=46	=46	=46	=46	=46	=46	=46	=46	=46
2BB-/	.	2BB-/	.	2B-\	-rem	2f\	-rem	2b-\	-rem	2b-\	-rem
*	*	*	*	*	*ij	*	*	*	*	*	*
4GG/	.	4GG/	.	4B-\	et	4g\	et	4b-\	et	4dd\	et
=47	=47	=47	=47	=47-	=47	=47-	=47	=47-	=47	=47-	=47
4.GG/	.	4.GG/	.	4.B-\	ger-	4.d\	ger-	4.b-\	ger-	4.dd\	ger-
8AA/	.	8AA/	.	8A/	-mi-	8c/	-mi-	8a\	-mi-	8cc\	-mi-
!	!	!LO:TX:a:t=P:problem:nie wyświetla się kreska taktowa za 4BB-	!	!LO:TX:a:t=P:problem:nie wyświetla się kreska taktowa za 4G	!	!	!	!LO:TX:a:t=P:problem:nie wyświetla się kreska taktowa za 4g	!	!LO:TX:a:t=P:problem:nie wyświetla się kreska taktowa za 4b-	!
4BB-/	.	4BB-/	.	4G/	-net	4f\	-net	4g/	-net	4b-\	-net
=48-	=48-	=48	=48	=48	=48	=48-	=48	=48	=48	=48	=48
4C/	X 6	8C/	.	8G/	Sal-	8e-\	Sal-	8a\	Sal-	8cc\	Sal-
.	.	8C/	.	8G/	-ua-	8e-\	-ua-	8g/	-ua-	8b-\	-ua-
!	!	!	!	!	!	!	!	!	!	!LO:SIC:s=2	!
2D/	43 #	2D/	.	2F#X/	-to-	2d\	-to-	2f#X/	-to-	4a\	-to-
.	.	.	.	.	.	.	.	.	.	4ryy	.
!	!	!LO:LB:g=original	!	!	!	!	!	!	!	!	!
=49	=49	=49	=49	=49	=49	=49	=49	=49	=49	=49	=49
4GG/	.	4GG/	.	4G/	-rem	4d\	-rem	4g/	-rem	4g/	-rem
*	*	*	*	*	*Xij	*	*	*	*	*	*
4C/	X -	4C/	.	4c\	Sal-	4g\	Sal-	4cc\	Sal-	4ee-X\	Sal-
!LO:SIC:s=4BBn	!	!LO:SIC:s=4BBn	!	!	!	!	!	!	!	!	!
4BB#X/	X 6	4BB#X/	.	4d\	-ua-	4g\	-ua-	4b-\	-ua-	4dd\	-ua-
!	!	!	!	!LO:LB:g=original	!	!	!	!	!	!	!
=50	=50	=50	=50	=50-	=50	=50-	=50	=50-	=50	=50	=50
2.C/	5 3-	4.C\	.	4c\	-to-	2.g\	-to-	2.cc\	-to-	2.ee-\	-to-
.	6 4	.	.	8d\L	.	.	.	.	.	.	.
.	- 3	8D\	.	(>8c\	.	.	.	.	.	.	.
.	.	8E-\L	.	8B-X\	.	.	.	.	.	.	.
.	.	8F\J	.	8A\J)	.	.	.	.	.	.	.
=51	=51	=51	=51	=51	=51	=51	=51	=51	=51	=51	=51
!LO:TX:a:t=P:problem:nuta o specyficznym kształcie	!	!	!	!	!	!	!	!	!	!LO:TX:a:t=P:problem:nie wyświetla się kreska taktowa za 2.dd	!
!	!	!	!	!LO:SIC:s=2.Bn	!	!LO:TX:a:t=P:problem:nuta o specyficznym kształcie	!	!	!	!	!
!	!	!LO:TX:a:t=P:problem:nie wyświetla się podwójna kreska taktowa za 2.G	!	!	!	!	!	!	!	!	!
2.GG/	.	2.G\	.	2.B#X\	-rem	2.g\	-rem	2.b-\	-rem	2.dd\	-rem.
!LO:PB:g=original	!	!	!	!	!	!	!	!	!	!	!
=52-	=52-	=52||	=52||	=52||	=52||	=52||	=52||	=52||	=52||	=52||	=52||
*k[b-e-]	*	*	*	*	*	*	*	*	*	*k[b-e-]	*
*M2/2	*	*M2/2	*	*M2/2	*	*M2/2	*	*M2/2	*	*M2/2	*
*met(c|)	*	*met(c|)	*	*met(c|)	*	*met(c|)	*	*met(c|)	*	*met(c|)	*
!LO:TX:b:t=Benedixiſti	!	!	!	!	!	!	!	!	!	!	!
!LO:TX:a:t=Vivace	!	!	!	!	!	!	!	!	!	!	!
!LO:TX:a:t=P:problem:w źródle bemole przykluczowe zapisane jeden nad drugim	!	!	!	!	!	!	!	!	!	!	!
4GG/	.	(>4.G\	Be-	4.B-X\	Be-	4.d\	Be-	2b-\	Be-	2b-\	Be-
8G\L	.	.	.	.	.	.	.	.	.	.	.
!LO:TX:b:t=Tutti	!	!	!	!	!	!	!	!	!	!	!
8F\J	.	8F\)	.	(>16A\LL	-ne-	(>16e-\LL	.	.	.	.	.
.	.	.	.	16B-\JJ)	.	16f\JJ)	.	.	.	.	.
8E-X\L	.	8E-\L	-ne-	8c\L	-di-	4.g\	.	2cc\	-ne-	2cc\	-ne-
16D\L	.	16D\L	.	(>16B-\L	.	.	.	.	.	.	.
16E-\J	.	16E-\JJ	.	16A\JJ)	.	.	.	.	.	.	.
8C\	.	(<8C/L	.	4G/	.	.	.	.	.	.	.
8D\J	.	8D/J)	.	.	.	(>16f\LL	.	.	.	.	.
.	.	.	.	.	.	16e-\JJ)	.	.	.	.	.
=53	=53	=53	=53	=53	=53	=53	=53	=53	=53	=53	=53
8BB-X/L	.	4BB-/	.	(>8B-\L	-xi-	4d\	-ne-	2dd\	-di-	2dd\	-di-
8AA/J	.	.	.	8c\J)	-ſti	.	.	.	.	.	.
8GG/L	.	4GG/	-di-	4d\	.	8g\L	-di-	.	.	.	.
16BB-/L	.	.	.	.	.	(>16a\L	.	.	.	.	.
16C/JJ	.	.	.	.	.	16e-\JJ)	-xiſ-	.	.	.	.
4D/	X #	4D/	-xiſ-	4A\	Do-	4f#X\	-ti	4dd\	-xis-	4dd\	-xiſ-
4GG/	.	4GG/	-ti	8B-\	-mi-	4g\	.	4dd\	-ti	4dd\	-ti
.	.	.	.	8A/	-ne	.	.	.	.	.	.
!	!	!	!	!	!	!	!	!	!	!LO:LB:g=original	!
=54	=54	=54	=54	=54	=54	=54	=54	=54	=54	=54	=54
4.G\	.	4.G\	do-	(>8B-\L	ter-	4g\	Do-	4.dd\	Do-	4.dd\	Do-
.	.	.	.	8c\J)	.	.	.	.	.	.	.
.	.	.	.	4d\	-ram	8d\	-mi-	.	.	.	.
16F\LL	.	(>16F\LL	.	.	.	8f\	-ne	8dd\	-mi-	8dd\	-mi-
16E-X\JJ	.	16E-\JJ)	.	.	.	.	.	.	.	.	.
8D\L	.	16D/	-mi-	4d\	tu-	(>8f\L	ter-	2dd\	-ne	2dd\	-ne
.	.	16D/	-ne	.	.	.	.	.	.	.	.
8E-X\	.	8D/	.	.	.	8e-\J)	.	.	.	.	.
8F\	X 6	4r	.	(>8A\L	.	4d\	-ram	.	.	.	.
8BB-X\J	.	.	.	8F\J)	.	.	.	.	.	.	.
!	!	!	!	!	!	!LO:LB:g=original	!	!LO:LB:g=original	!	!	!
=55	=55	=55	=55	=55	=55	=55	=55	=55	=55	=55	=55
4.B-X\	.	4.B-\	do-	4B-\	-am	4d\	tu-	4.ff\	ter-	(>4.ff\	ter-
.	.	.	.	(>8B-\L	a-	4c/	-am	.	.	.	.
16A\LL	.	16A\LL	.	16c\L	-uer-	.	.	8ee-\	.	8ee-\)	.
16G\JJ	.	16G\JJ	.	16d\JJ)	.	.	.	.	.	.	.
8F\L	X 6	16F\	.	(<8A/L	-ti-	4r	.	2dd\	-ram	2dd\	-ram
.	.	16F\	-mi-	.	.	.	.	.	.	.	.
8G\	.	8F\	-ne	8G/J	.	.	.	.	.	.	.
8A\	x 6	4r	.	4F/)	.	8d\	a-	.	.	.	.
8D\J	.	.	.	.	.	8a\	-uer-	.	.	.	.
=56	=56	=56	=56	=56	=56	=56	=56	=56	=56	=56	=56
8G\L	.	8G\L	ter-	4B-\	-sti	4g\	-ti-	(>2dd\	tu-	(>2dd\	tu-
16F\L	.	(>16F\L	.	.	.	.	.	.	.	.	.
16E-X\JJ	.	16E-\JJ)	.	.	.	.	.	.	.	.	.
8D\L	.	8D\L	.	4d\	ca-	4a\	-ſti	.	.	.	.
8E-\J	.	8E-\J	.	.	.	.	.	.	.	.	.
!LO:LB:g=original	!	!LO:LB:g=original	!	!	!	!	!	!	!	!	!
8F\L	.	8F\L	.	4A\	-pti-	4r	.	2cc\)	-am	2cc\)	.
16E-X\L	.	16E-\L	.	.	.	.	.	.	.	.	.
16D\J	.	16D\JJ	.	.	.	.	.	.	.	.	.
8C\	.	8C/L	.	4c\	-ui-	8g\	a-	.	.	.	.
8D\J	.	8D/J	.	.	.	8d\	-uer-	.	.	.	.
=57	=57	=57	=57	=57	=57	=57	=57	=57	=57	=57-	=57
4BB-X/	.	4B-\	.	8B-\	-ta-	(>8f\L	-ti-	2dd\	.	2dd\	-am
.	.	.	.	8F/	-tem	8g\J)	.	.	.	.	.
8AA/L	.	(>8A\L	-ram	(>4.A\	Ja-	4a\	-ſti	.	.	.	.
8GG/J	.	8G\J)	.	.	.	.	.	.	.	.	.
4.FF/	.	4.F\	tu-	.	.	8r	.	4cc\	a-	4cc\	a-
.	6 4 2	.	.	8B-\)	.	8a\	ca-	.	.	.	.
.	.	.	.	4G/	-cob	8a\	-pti-	4b-\	-uer-	4b-\	-uer-
8GG/	.	8G\	-am	.	.	(>16g\LL	-ui-	.	.	.	.
.	.	.	.	.	.	16f\JJ)	.	.	.	.	.
!	!	!	!	!LO:LB:g=original	!	!	!	!	!	!	!
=58	=58	=58	=58	=58	=58	=58	=58	=58	=58	=58	=58
4AA/	.	4r	.	8A\	a-	(>8e-\L	-ta-	(>4cc\	-ti-	(>4cc\	-ti-
.	.	.	.	8c\	-uer-	8f\J)	-tem	.	.	.	.
8GG/L	.	8G\	a-	(>8B-\L	-ti-	4g\	.	4dd\)	-sti	4dd\)	.
8FF/J	.	8F\	-uer-	8c\J)	-ſti	.	.	.	.	.	.
4.BB-/	.	4.B-\	-ti-	4d\	.	(>8d\L	Ja-	2dd\	.	2dd\	-sti
.	.	.	.	.	.	8e-\J)	.	.	.	.	.
.	.	.	.	8r	.	4f\	-cob	.	.	.	.
8D/	.	8F\	-ſti	8A\	ca-	.	.	.	.	.	.
=59	=59	=59	=59	=59	=59	=59	=59	=59	=59	=59	=59
8G\L	.	1r	.	4B-\	-pti-	8r	.	2dd\	ca-	2dd\	Ca-
8B-X\	.	.	.	.	.	8f\	ca-	.	.	.	.
8A\	.	.	.	4c\	-ui-	8a\	-pti-	.	.	.	.
8G\J	.	.	.	.	.	(>16d\LL	-ui-	.	.	.	.
.	.	.	.	.	.	16e-\JJ)	.	.	.	.	.
8F#X\L	X X 6	.	.	4A\	-ta-	8f\	-ta-	4dd\	-pti-	4dd\	-pti-
8G\	.	.	.	.	.	8d\	-tem	.	.	.	.
8A\	.	.	.	4F/	-tem	4r	.	4dd\	-ui-	4dd\	-ui-
16D\L	.	.	.	.	.	.	.	.	.	.	.
16C\JJ	.	.	.	.	.	.	.	.	.	.	.
=60	=60	=60-	=60	=60	=60	=60	=60	=60	=60	=60	=60
4.BB-/	6 4 2	4.B-\	ca-	4r	.	8r	.	4dd\	-ta-	(>4dd\	-ta-
*	*	*	*	*	*	*	*ij	*	*	*	*
.	.	.	.	.	.	8d\	ca-	.	.	.	.
.	.	.	.	8r	.	8f\	-pti-	4ee-\	-tem	4ee-\	.
16AA/LL	.	(>16A\LL	.	8A\	ca-	8a\	-ui-	.	.	.	.
16GG/JJ	.	16G\JJ)	.	.	.	.	.	.	.	.	.
.	X - 6	.	.	.	.	.	.	.	.	.	.
4.AA/	X 4 5	4.A\	-pti-	4A\	-pti-	8a\L	-ta-	4ff\	.	4ff\	.
.	.	.	.	.	.	16g\L	.	.	.	.	.
.	.	.	.	.	.	16a\JJ	.	.	.	.	.
.	.	.	.	4c\	-ui-	4e-\	-tem	4dd\	.	4dd\)	.
16GG/LL	X X 6	16G\LL	-ui-	.	.	.	.	.	.	.	.
16FF/JJ	.	16F\JJ	.	.	.	.	.	.	.	.	.
!LO:LB:g=original	!	!	!	!	!	!	!	!	!	!	!
=61	=61	=61	=61	=61	=61	=61	=61	=61	=61	=61	=61
8GG/L	.	4.G\	-ta-	4B-\	-ta-	8r	.	(>4dd\	.	(>4dd\	-tem
8AA/	.	.	.	.	.	8d\	ca-	.	.	.	.
8BB-/	.	.	.	4A\	-tem	8g\	-pti-	4cc\)	.	4cc\)	.
8FF/J	.	8A\	-tem	.	.	8a\	-ui-	.	.	.	.
!	!	!	!	!	!	!LO:LB:g=original	!	!	!	!	!
8BB-/L	.	4.B-\	Ja-	(>8d\L	Ja-	(>8f\L	-ta-	2b-\	.	2b-\	.
8C/	.	.	.	8B-\	.	8e-\)	.	.	.	.	.
8D/	.	.	.	8c\	.	(>8f\	-tem	.	.	.	.
8GG/J	.	8G\	-cob	8d\J)	.	8g\J)	.	.	.	.	.
*	*	*	*	*	*	*	*Xij	*	*	*	*
=62	=62	=62	=62	=62	=62	=62	=62	=62	=62	=62	=62
8G\L	.	(<4BB-/	Ja-	(>8B-\L	.	4d\	Ja-	2b-\	Ja-	(>2b-\	Ja-
8D\	.	.	.	8A\J	.	.	.	.	.	.	.
8E-X\	.	4C/)	.	4G/)	.	8g\L	.	.	.	.	.
8C\J	.	.	.	.	.	(>16f\L	.	.	.	.	.
.	.	.	.	.	.	16e-\JJ)	.	.	.	.	.
!	!	!LO:TX:a:t=P:problem:nie wyświetla się kreska taktowa za 2D	!	!LO:SIC:o=8.	!	!	!	!	!	!	!
2D/	43 #	2D/	.	4.F#X/	.	2f#X\	.	2a\	-cob	2a\)	.
.	.	.	.	8F#/	.	.	.	.	.	.	.
=63-	=63-	=63	=63	=63	=63	=63-	=63	=63	=63	=63	=63
!LO:TX:a:t=P:problem:nuta o specyficznym kształcie	!	!LO:TX:a:t=P:problem:w źródle za 1GG jest pojedyncza kreska taktowa	!	!	!	!	!	!	!	!	!
1GG	.	1GG;	-cob.	1G	-cob.	1g	-cob	1g	.	1g	-cob
!	!	!LO:LB:g=original	!	!	!	!	!	!	!	!	!
=64|	=64|	=64|	=64||	=64||	=64||	=64||	=64||	=64||	=64||	=64||	=64||
*k[b-e-]	*	*k[b-e-]	*	*k[b-e-]	*	*	*	*k[b-e-]	*	*	*
*M2/2	*	*M2/2	*	*M2/2	*	*M2/2	*	*M2/2	*	*M2/2	*
*met(c|)	*	*met(c|)	*	*met(c|)	*	*met(c|)	*	*met(c|)	*	*met(c|)	*
!LO:TX:b:t=Kyrie T. A.	!	!	!	!	!	!	!	!	!	!	!
!LO:TX:a:t=P:problem:w źródle bemole przykluczowe zapisane jeden nad drugim	!	!	!	!	!	!	!	!	!	!	!
4.BB-/	.	1r	.	4.d\	Ky-	4r	.	2b-\	Ky-	2b-\	Ky-
.	.	.	.	.	.	4.d\	Ky-	.	.	.	.
16C/LL	.	.	.	8c\	-ri-	.	.	.	.	.	.
16D/JJ	x 6-	.	.	.	.	.	.	.	.	.	.
4E-X\	.	.	.	(>4.B-\	-e	.	.	2g\	-rie	2g\	-ri-
.	.	.	.	.	.	(<16c/LL	-ri-	.	.	.	.
.	.	.	.	.	.	16B-/JJ)	.	.	.	.	.
!	!	!	!	!	!	!LO:TX:a:t=P:problem:mixed beamm	!	!	!	!	!
8D/L	.	.	.	.	.	8A/L	-e	.	.	.	.
8C/J	.	.	.	8e-\)	.	(>16g\L	.	.	.	.	.
.	.	.	.	.	.	16f\JJ)	.	.	.	.	.
=65	=65	=65	=65	=65	=65	=65	=65	=65	=65	=65	=65
!LO:TX:b:t=Tutti	!	!	!	!	!	!	!	!	!	!	!
4.G\	.	4.G\	Ky-	4d\	lei-	4g\	lei-	2b-\	.	2b-\	-e
.	.	.	.	4B-\	-ſon	8g\	-ſon	.	.	.	.
16D\LL	.	(>16D\LL	-ri-	.	.	(>16f\LL	e-	.	.	.	.
16E-X\JJ	.	16E-\JJ)	.	.	.	16g\JJ)	-lei-	.	.	.	.
8F\L	.	8F\L	-e	4.A\	Kyri-	(>4a\	.	2cc\	.	2cc\	.
8E-\	.	8E-\	.	.	.	.	.	.	.	.	.
8D\	.	8D\	.	.	.	4f\)	.	.	.	.	.
8C\J	X -	8C\J	.	8c\	-e	.	.	.	.	.	.
!LO:LB:g=original	!	!	!	!LO:LB:g=original	!	!	!	!LO:LB:g=original	!	!LO:LB:g=original	!
=66	=66	=66	=66	=66	=66	=66	=66	=66	=66	=66	=66
8BB-/L	.	8BB-/L	.	4B-\	e-	4f\	-ſon	2dd\	.	2dd\	.
16D/L	.	16D/L	.	.	.	.	.	.	.	.	.
16C/J	.	16C/JJ	.	.	.	.	.	.	.	.	.
8BB-/	.	8BB-/L	.	4d\	.	8f\	Ky-	.	.	.	.
16AA/L	.	16AA/L	.	.	.	8d\	-ri-	.	.	.	.
16GG/JJ	.	16GG/JJ	.	.	.	.	.	.	.	.	.
8C/L	.	8C/L	.	4.e-\	.	(>8e-\L	-e	2ee-\	.	2ee-\	.
8D/	.	8D/	.	.	.	8d\J)	.	.	.	.	.
8E-X/	.	8E-/	.	.	.	4c/	.	.	.	.	.
16BB-X/L	.	16BB-/L	.	16d\LL	.	.	.	.	.	.	.
16AA/JJ	.	16AA/JJ	.	16c\JJ	.	.	.	.	.	.	.
=67	=67	=67	=67	=67	=67	=67	=67	=67	=67	=67	=67
8GG/L	.	8GG/L	.	8B-\L	.	4.g\	e-	2dd\	.	2dd\	.
8AA/	.	8AA/	.	16A\L	.	.	.	.	.	.	.
.	.	.	.	16G\JJ	.	.	.	.	.	.	.
8BB-X/	.	8BB-/	.	4.F/	.	.	.	.	.	.	.
16D/L	.	16D/L	.	.	.	16d\LL	.	.	.	.	.
16E-X/JJ	.	16E-/JJ	.	.	.	16e-\JJ	.	.	.	.	.
8F\L	.	8F\L	.	.	.	4.f\	.	2cc\	.	2cc\	.
8C\	.	8C\	.	16G/LL	.	.	.	.	.	.	.
.	.	.	.	16A/JJ	.	.	.	.	.	.	.
8D\	.	8D\	.	[>4B-\	.	.	.	.	.	.	.
16E-X\L	.	16E-\L	.	.	.	8e-\	.	.	.	.	.
16F\JJ	.	16F\JJ	.	.	.	.	.	.	.	.	.
=68	=68	=68	=68	=68	=68	=68	=68	=68	=68	=68	=68
!	!	!	!	!LO:TX:a:t=P:problem:nuta zapisana jako kropka do ćwierćnuty z poprzedniego taktu	!	!	!	!	!	!	!
4G\	.	4G\	.	8B-\]	.	8d\L	.	2b-\	.	2b-\	.
.	.	.	.	8c\	.	8e-\J	.	.	.	.	.
8BB-/L	.	8BB-/L	.	4d\	.	4c\	.	.	.	.	.
16C/L	X 6	16C/L	.	.	.	.	.	.	.	.	.
16D/JJ	.	16D/JJ	.	.	.	.	.	.	.	.	.
8E-X/L	.	8E-\L	.	4B-\	.	8e-\L	.	2g/	-e-	2g\	e-
8D/	.	8D\	.	.	.	8f\J	.	.	.	.	.
8C/	.	8C\	.	4e-\	.	4g\	.	.	.	.	.
8GG/J	.	8G\J	e-	.	.	.	.	.	.	.	.
!	!	!	!	!	!	!LO:LB:g=original	!	!	!	!	!
=69	=69	=69	=69	=69	=69	=69	=69	=69	=69	=69	=69
8F\L	.	8F\L	.	4c\	.	4f\	.	1a	-ley-	1a	-lei-
8E-X\	.	8E-\	.	.	.	.	.	.	.	.	.
8D\	.	8D\	.	4d\	.	8d\L	.	.	.	.	.
16C\L	X -	16C\L	.	.	.	8e-\J	.	.	.	.	.
16BB-X\JJ	.	16BB-\JJ	.	.	.	.	.	.	.	.	.
2F\	X 43	2F\	-lei-	2c\	-lei-	4.c\	-lei-	.	.	.	.
.	.	.	.	.	.	8f\	-ſon	.	.	.	.
!	!	!LO:LB:g=original	!	!	!	!	!	!	!	!	!
=70	=70	=70	=70	=70-	=70	=70	=70	=70	=70	=70	=70
!	!	!	!	!LO:TX:a:t=P:problem:w źródle pojedyncza kreska taktowa za 1B-	!	!	!	!	!	!	!
1BB-;;	.	1BB-	-ſon	1B-;;	-ſon	1f;	.	1b-	-son	1b-;	-ſon
=71|	=71|	=71||	=71||	=71||	=71||	=71||	=71||	=71||	=71||	=71||	=71||
*clefC4	*	*	*	*	*	*	*	*	*	*	*
*k[b-e-]	*	*k[b-e-]	*	*k[b-e-]	*	*	*	*k[b-e-]	*	*k[b-e-]	*
*M2/2	*	*	*	*	*	*M2/2	*	*	*	*	*
*met(c|)	*	*	*	*	*	*met(c|)	*	*	*	*	*
!LO:TX:b:t=Chriſte Ten&colon;	!	!	!	!	!	!	!	!	!	!	!
!LO:TX:a:t=P:problem:w źródle bemole przyklucozwe zapisane jeden nad drugim	!	!	!	!	!	!	!	!	!	!	!
4.B-\	X 5	1r	.	4.B-\	Chri-	4f\	Chri-	2b-\	Chri-	2b-\	Chri-
.	.	.	.	.	.	(>8d\L	-ste	.	.	.	.
16f\LL	.	.	.	(>16f\LL	.	8e-\J)	.	.	.	.	.
16e-\JJ	.	.	.	16e-\JJ)	.	.	.	.	.	.	.
8d\L	- 6	.	.	8d\L	-ste	4.f\	e-	2ff\	.	2ff\	.
8c\	.	.	.	8c\	.	.	.	.	.	.	.
8B-\	.	.	.	8B-\	.	.	.	.	.	.	.
8A\J	.	.	.	8A\J	.	16e-\LL	.	.	.	.	.
.	.	.	.	.	.	16f\JJ	.	.	.	.	.
=72	=72	=72-	=72	=72	=72	=72	=72	=72	=72	=72	=72
8B-\L	.	2r	.	8B-\L	.	8d\L	.	2ff\	-ſte-	2ff\	-ste
16A\L	.	.	.	16A\L	.	16e-\L	.	.	.	.	.
16G\JJ	.	.	.	16G\JJ	.	16f\JJ	.	.	.	.	.
!	!	!	!	!LO:TX:a:t=P:problem:mixed beam	!	!	!	!	!	!	!
8F/L	.	.	.	8F/L	.	8B-/L	.	.	.	.	.
8D/J	.	.	.	8d\J	.	16c/L	.	.	.	.	.
.	.	.	.	.	.	16d/JJ	.	.	.	.	.
*clefF4	*	*	*	*	*	*	*	*	*	*	*
!LO:TX:a:t=P:problem:mixed beam	!	!	!	!	!	!	!	!	!	!	!
!LO:TX:a:t=P:problem:po kluczu F4 pojawiają się ponownie bemole przykluczowe, zapisane jeden nad drugim	!	!	!	!	!	!	!	!	!	!	!
8C/L	x -	8r	.	8e-\L	.	4.g\	.	2ee-\	.	2ee-\	.
8G\	.	8G\L	Chri-	8d\J	lei-	.	.	.	.	.	.
8F\	.	8F\	-ste	4c\	-ſon	.	.	.	.	.	.
8E-X\J	.	8E-\J	e-	.	.	16f\LL	.	.	.	.	.
.	.	.	.	.	.	16e-\JJ	.	.	.	.	.
=73	=73	=73	=73	=73	=73	=73	=73	=73-	=73	=73	=73
4D/	.	4D/	-lei-	4A-X\	.	(>8d\L	-lei-	2dd\	.	2dd\	.
.	.	.	.	.	.	8e-\J)	.	.	.	.	.
4.BB-/	.	4BB-/	-ſon	(>8d\L	Chri-	4f\	-ſon	.	.	.	.
.	- 4 2	.	.	8c\J)	.	.	.	.	.	.	.
.	.	8r	.	4B-\	-ste	4r	.	2ee-\	.	2ee-\	.
8GG/	X 6	8GG/	Chri-	.	.	.	.	.	.	.	.
4C/	X -	4C/	-ste	8G\L	.	4g\	Chri-	.	.	.	.
.	.	.	.	8c\J	.	.	.	.	.	.	.
!	!	!	!	!LO:LB:g=original	!	!	!	!	!	!	!
=74	=74	=74	=74	=74	=74	=74	=74	=74-	=74	=74	=74
4BB-/	.	4BB-/	e-	8B-\L	.	4.d\	-ste	2ff\	.	2ff\	.
.	.	.	.	8A\J	.	.	.	.	.	.	.
8C/L	.	(<8C/L	.	4.G\	.	.	.	.	.	.	.
8D/J	.	8D/J)	.	.	.	8f\	.	.	.	.	.
4.E-X\	.	4.E-\	.	.	.	4c\	.	2gg\	.	2gg\	.
.	.	.	.	16A\LL	.	.	.	.	.	.	.
.	.	.	.	16B-\JJ	.	.	.	.	.	.	.
.	.	.	.	4c\	.	4e-\	.	.	.	.	.
8C/	.	8C/	-lei-	.	.	.	.	.	.	.	.
=75	=75	=75	=75	=75	=75	=75	=75	=75-	=75	=75	=75
4D\	.	4D/	-ſon	8d\L	.	8d\L	.	2ff\	.	2ff\	.
.	.	.	.	8c\J	.	8c\J	.	.	.	.	.
!LO:TX:a:t=P:problem:mixed beam	!	!	!	!	!	!	!	!	!	!	!
8GG/L	.	4B-\	Chri-	4.B-\	.	8B-/L	.	.	.	.	.
16B-\L	.	.	.	.	.	8G/J	.	.	.	.	.
16A\JJ	.	.	.	.	.	.	.	.	.	.	.
!LO:LB:g=original	!	!	!	!	!	!	!	!	!	!	!
8G\L	.	8G\L	-ste	.	.	4g\	.	2dd\	.	2dd\	.
8A\	.	8A\	.	8A\	.	.	.	.	.	.	.
8B-\	.	8B-\	.	8B-\L	.	4f\	.	.	.	.	.
8F\J	.	8F\J	.	8c\J	.	.	.	.	.	.	.
=76	=76	=76	=76	=76	=76	=76	=76	=76	=76	=76	=76
8G\L	6- 4	8G\L	e-	4.G/	.	8e-\L	.	2ee-\	.	2ee-\	.
8F\	.	8F\	.	.	.	8f\J	.	.	.	.	.
8E-X\	.	8E-\	.	.	.	4.g\	e-	.	.	.	.
16D\L	.	16D\L	.	8A/	.	.	.	.	.	.	.
16C\JJ	.	16C\JJ	.	.	.	.	.	.	.	.	.
8BB-/L	.	(<8BB-/L	-lei-	4B-\	.	.	.	2dd\	.	2dd\	.
8AA/J	.	8AA/J)	.	.	.	8d\	-lei-	.	.	.	.
4GG/	.	4GG/	-ſon	8d\L	.	4g\	-ſon	.	.	.	.
.	.	.	.	8c\J	.	.	.	.	.	.	.
!	!	!	!	!	!	!LO:LB:g=original	!	!	!	!	!
=77	=77	=77	=77	=77	=77	=77	=77	=77-	=77	=77	=77
8F\L	.	2r	.	4.A\	.	(>8a\L	Chri-	2cc\	.	2cc\	.
8C\	.	.	.	.	.	8g\)	.	.	.	.	.
8D\	.	.	.	.	.	(>8f\	-ste	.	.	.	.
8E-X\J	.	.	.	8B-\	.	8e-\J)	.	.	.	.	.
4.GG/	.	4.G\	Chri-	8G\L	.	4d\	.	2b-\	.	2b-\	.
.	.	.	.	8B-\J	.	.	.	.	.	.	.
.	.	.	.	4d\	.	4g\	.	.	.	.	.
16G\LL	.	8F\	-ste	.	.	.	.	.	.	.	.
16F\JJ	.	.	.	.	.	.	.	.	.	.	.
=78	=78	=78	=78	=78	=78	=78	=78	=78	=78	=78	=78
8E-\L	.	4E-\	e-	4.e-\	.	8g\L	.	2g/	-e-	2g\	e-
16BB-\L	.	.	.	.	.	8d\J	.	.	.	.	.
16C\J	.	.	.	.	.	.	.	.	.	.	.
8D\	.	(>8D\L	.	.	.	8f\L	.	.	.	.	.
8E-\J	.	8E-\J)	.	16d\LL	.	16e-\L	.	.	.	.	.
.	.	.	.	16c\JJ	.	16d\JJ	.	.	.	.	.
2F\	X 43	2F\	-lei-	2c\	lei-	2c/	lei-	2a\	-lei-	2a\	-lei-
=79	=79	=79	=79	=79	=79	=79	=79	=79-	=79	=79	=79
!	!	!	!	!LO:TX:a:t=P:problem:nuta o specyficznym kształcie	!	!	!	!	!	!	!
!LO:TX:a:t=P:problem:nuta o specyficznym kształcie	!	!	!	!	!	!	!	!	!	!	!
!	!	!LO:TX:a:t=P:problem:nie wyświetla się podwójna kreska taktowa	!	!LO:TX:a:t=P:problem:w źródle pojedyncza kreska taktowa za 1B-	!	!	!	!	!	!	!
1BB-	.	1BB-;;	-ſon.	1B-	-ſon	1d;;	-ſon	1b-	-son	1b-;	-ſon
!	!	!LO:LB:g=original	!	!	!	!	!	!	!	!	!
*clefC4	*	*	*	*	*	*	*	*	*	*	*
=80-	=80-	=80||	=80||	=80||	=80||	=80||	=80||	=80||	=80||	=80||	=80||
*k[b-e-]	*	*k[b-e-]	*	*	*	*	*	*	*	*	*
*M2/2	*	*	*	*	*	*M2/2	*	*	*	*	*
*met(c|)	*	*	*	*	*	*met(c|)	*	*	*	*	*
!LO:TX:b:t=Kyrie	!	!	!	!	!	!	!	!	!	!	!
!LO:TX:a:t=P:problem:w źródle bemole przykluczowe zapisane jeden nad drugim	!	!	!	!	!	!	!LO:TX:a:t=P:problem	!	!	!	!
!	!	!	!	!	!	!	!	!LO:TX:a:t=P:problem:tt. 80-88 zapisane jako repetycja tt. 71-79	!	!	!
4.B-\	.	1r	.	4.B-X\	Ky-	(>2B-/	Ky-	2b-\	.	4.dd\	Ky-
.	6 4	.	.	.	.	.	.	.	.	.	.
16A\LL	.	.	.	(>16A\LL	-ri-	.	.	.	.	8dd\	-ri-
16B-\JJ	.	.	.	16B-\JJ)	.	.	.	.	.	.	.
!LO:LB:g=original	!	!	!	!	!	!	!	!	!	!	!
8A/L	X 6	.	.	8A/L	-e	2f\)	.	2ff	.	4.cc\	-e
8G/	.	.	.	8G/	.	.	.	.	.	.	.
8F/	.	.	.	8F/	.	.	.	.	.	.	.
8E-/J	X 7	.	.	8E-/J	.	.	.	.	.	16dd\LL	.
.	.	.	.	.	.	.	.	.	.	16ee-\JJ	.
=81	=81	=81	=81	=81	=81	=81-	=81	=81	=81	=81	=81
*clefF4	*	*	*	*	*	*	*	*	*	*	*
*k[b-e-]	*	*	*	*	*	*k[b-e-]	*	*	*	*	*
!LO:TX:a:t=P:problem:w źródle bemole przykluczowe zapisane jeden nad drugim	!	!	!	!	!	!	!	!	!	!	!
4.D/	.	4.D/	Ky-	8F/L	e-	2f\	-ri-	2ff\	.	8ff\L	.
.	.	.	.	8G/J	.	.	.	.	.	8ee-\J	.
.	.	.	.	4.A\	.	.	.	.	.	8dd\L	.
16C/LL	.	16C/LL	-ri-	.	.	.	.	.	.	16ee-\L	.
16BB-/JJ	.	16BB-/JJ	.	.	.	.	.	.	.	16ff\JJ	.
!	!	!	!	!	!	!	!	!	!	!LO:LB:g=original	!
8E-X\L	.	8E-\L	-e	.	.	2g\	-e	2ee-\	.	8gg\L	.
8F\	.	8F\	.	(>16B-\LL	-lei-	.	.	.	.	8ff\J	.
.	.	.	.	16c\JJ)	.	.	.	.	.	.	.
8E-\	.	8E-\	.	4B-\	-ſon	.	.	.	.	8ee-\L	.
16D\L	.	16D\L	.	.	.	.	.	.	.	16ff\L	.
16C\JJ	X -	16C\JJ	.	.	.	.	.	.	.	16gg\JJ	.
!	!	!	!	!LO:PB:g=original	!	!	!	!	!	!	!
=82	=82	=82	=82	=82	=82	=82-	=82	=82	=82	=82	=82
4BB-/	.	4BB-/	e-	(>8B-\L	e-	2f\	.	2dd\	.	8ff\L	.
.	.	.	.	8d\J)	.	.	.	.	.	8ee-\J	.
8D\L	.	8D\L	.	4A\	-lei-	.	.	.	.	4.dd\	.
16E-X\L	.	16E-\L	.	.	.	.	.	.	.	.	.
16F\JJ	.	16F\JJ	.	.	.	.	.	.	.	.	.
8G\L	.	8G\L	.	4B-\	-ſon	2b-\	.	2ee-\	.	.	.
8E-\J	.	8E-\J	.	.	.	.	.	.	.	16cc\LL	.
.	.	.	.	.	.	.	.	.	.	16b-\JJ	.
4G\	.	[>4G\	.	(>8d\L	e-	.	.	.	.	8dd\L	.
.	.	.	.	8B-\J)	.	.	.	.	.	8b-\J	.
=83	=83	=83	=83	=83	=83	=83-	=83	=83	=83	=83	=83
!	!	!LO:TX:a:t=P:problem:nuta zapisana jako kropka do ćwierćnuty z poprzedniego taktu	!	!	!	!	!	!	!	!	!
8G\L	- 7	8G\]	.	8c\L	.	2a\	.	2ff\	.	4.a\	.
.	X 6	.	.	.	.	.	.	.	.	.	.
16D\L	.	16D\LL	.	16B-\L	.	.	.	.	.	.	.
16E-X\JJ	.	16E-\JJ	.	16c\JJ	.	.	.	.	.	.	.
4F\	.	4.F\	.	8A\L	.	.	.	.	.	.	.
.	.	.	.	8c\J	.	.	.	.	.	16g/LL	.
.	.	.	.	.	.	.	.	.	.	16f/JJ	.
8F\L	- 7	.	.	8B-\L	.	2g\	.	2gg\	.	16b-\LL	.
.	X 6	.	.	.	.	.	.	.	.	16a\	.
16C\L	.	16C/LL	.	16A\L	.	.	.	.	.	16b-\	.
16D\JJ	.	16D/JJ	.	16B-\JJ	.	.	.	.	.	16cc\JJ	.
4E-X\	.	[>4E-\	.	8G/L	.	.	.	.	.	16b-\LL	.
.	.	.	.	.	.	.	.	.	.	16a\	.
.	.	.	.	8B-/J	.	.	.	.	.	16b-\	.
.	.	.	.	.	.	.	.	.	.	16cc\JJ	.
=84	=84	=84	=84	=84	=84	=84-	=84	=84	=84	=84	=84
!	!	!LO:TX:a:t=P:problem:nuta zapisana jako kropka do ćwierćnuty z poprzedniego taktu	!	!	!	!	!	!	!	!	!
8E-/L	X 7	8E-\]	.	8A/L	.	2f\	.	2ff\	.	4.dd\	.
.	x 6	.	.	.	.	.	.	.	.	.	.
16BB-/L	.	16BB-/LL	.	16G/L	.	.	.	.	.	.	.
16C/JJ	.	16C/JJ	.	16A/JJ	.	.	.	.	.	.	.
4D/	.	4.D\	.	4F/	-lei-	.	.	.	.	.	.
.	.	.	.	.	.	.	.	.	.	16cc\LL	.
.	.	.	.	.	.	.	.	.	.	16b-\JJ	.
8D/L	X 7	.	.	2G/	-ſon	2e-\	.	2dd\	.	8cc\L	.
.	X 6	.	.	.	.	.	.	.	.	.	.
16AA/L	.	16AA/LL	.	.	.	.	.	.	.	(>16b-\L	.
16BB-/JJ	.	16BB-/JJ	.	.	.	.	.	.	.	16a\JJ)	.
!LO:LB:g=original	!	!	!	!	!	!	!	!	!	!	!
8C/L	-	8C/L	.	.	.	.	.	.	.	4g/	.
16GG/L	- 6	16GG/L	.	.	.	.	.	.	.	.	.
16AA/JJ	.	16AA/JJ	.	.	.	.	.	.	.	.	.
=85	=85	=85	=85	=85	=85	=85-	=85	=85	=85	=85	=85
8BB-/L	.	8BB-/L	.	4.d\	Ky-	2f\	.	2ee-\	.	4.b-\	.
8C/	.	8C/	.	.	.	.	.	.	.	.	.
8D/	.	8D/	.	.	.	.	.	.	.	.	.
16C/L	.	16C/L	.	8e-\	-ri-	.	.	.	.	16a\LL	.
16BB-/JJ	.	16BB-/JJ	.	.	.	.	.	.	.	16b-\JJ	.
4.E-X\	.	4.E-\	.	8B-\L	-e	2g\	.	2dd\	.	8g\L	.
.	.	.	.	8c\	.	.	.	.	.	8a\	.
.	.	.	.	8B-\	.	.	.	.	.	8b-\	.
8C/	.	8C/	.	16A\L	.	.	.	.	.	8ee-\J	.
.	.	.	.	16G\JJ	.	.	.	.	.	.	.
=86	=86	=86	=86	=86	=86	=86-	=86	=86	=86	=86	=86
8D/L	.	8D/L	.	4A\	lei-	2f\	.	2cc\	.	4dd\	.
8BB-/	.	8BB-/	.	.	.	.	.	.	.	.	.
8C/	X -	8C/	-lei-	4c\	-ſon	.	.	.	.	8cc\L	.
8D/J	.	8D/J	.	.	.	.	.	.	.	16b-\L	.
.	.	.	.	.	.	.	.	.	.	16a\JJ	.
4.GG/	.	4GG/	-ſon	(>8d\L	Ky-	2d\	.	2b-\	.	4b-\	.
.	.	.	.	16c\L	-ri-	.	.	.	.	.	.
.	.	.	.	16d\JJ)	.	.	.	.	.	.	.
.	.	4r	.	4B-\	-e	.	.	.	.	8a\L	.
8BB-/	.	.	.	.	.	.	.	.	.	8b-\J	.
!	!	!LO:LB:g=original	!	!	!	!	!	!	!	!LO:PB:g=original	!
=87	=87	=87	=87	=87	=87	=87-	=87	=87	=87	=87	=87
4C/	.	2r	.	8G\L	e-	2e-X\	.	2g/	.	8ee-\L	.
.	.	.	.	8B-\J	.	.	.	.	.	16dd\L	.
.	.	.	.	.	.	.	.	.	.	16cc\JJ	.
8G\L	.	.	.	4c\	.	.	.	.	.	4b-\	.
8F\J	X 6	.	.	.	.	.	.	.	.	.	.
4G\	.	4G\	Ky-	8B-\L	.	2d\	.	2a\	.	8dd\	.
.	.	.	.	8G\J	.	.	.	.	.	8cc\	.
8D\L	X 6	8D\L	-ri-	4B-\	.	.	.	.	.	4dd\	.
8E-\J	.	8E-\J	-e	.	.	.	.	.	.	.	.
=88	=88	=88	=88	=88	=88	=88-	=88	=88	=88	=88	=88
4F\	.	4F\	e-	8c\L	.	2c/	.	1b-	.	8cc\L	.
.	.	.	.	8A\J	.	.	.	.	.	16b-\L	.
.	.	.	.	.	.	.	.	.	.	16cc\JJ	.
8C/L	.	8C\L	.	4c\	.	.	.	.	.	4.a\	.
8D/J	.	8D\J	.	.	.	.	.	.	.	.	.
8E-X\L	.	8E-\L	.	4G/	.	2B-X/	.	.	.	.	.
16D\L	.	16D\L	.	.	.	.	.	.	.	16dd\LL	.
16C\JJ	.	16C\JJ	.	.	.	.	.	.	.	16cc\JJ	.
8BB-/L	.	4BB-/	.	4d\	.	.	.	.	.	8dd\L	.
8GG/J	.	.	.	.	.	.	.	.	.	16cc\L	.
.	.	.	.	.	.	.	.	.	.	16dd\JJ	.
=89	=89	=89	=89	=89	=89	=89-	=89	=89	=89	=89	=89
!	!	!	!	!	!	!	!	!LO:TX:a:t=P:problem:w źródle "Kyrie Tacet" zapisane na pięciolinii	!	!	!
!	!	!	!	!	!	!	!	!LO:TX:a:t=Kyrie \nTacet	!	!	!
4E-\	.	4E-\	-e-	8B-\L	.	1G	e-	1ryy	.	8b-\	.
.	.	.	.	16A\L	.	.	.	.	.	8ee-\	.
.	.	.	.	16G\JJ	.	.	.	.	.	.	.
!	!	!	!	!LO:LB:g=original	!	!	!	!	!	!	!
8D\L	.	8D\L	.	4F/	.	.	.	.	.	4.dd\	.
8E-\J	.	8E-\J	.	.	.	.	.	.	.	.	.
8C/L	X -	8C/L	.	4.c\	.	.	.	.	.	.	.
8BB-/	.	8BB-/	.	.	.	.	.	.	.	8dd\	.
8C/	.	8C/	.	.	.	.	.	.	.	8cc\L	.
8E-X/J	.	8E-/J	.	8G/	.	.	.	.	.	8b-\J	.
!LO:PB:g=original	!	!	!	!	!	!	!	!	!	!	!
=90	=90	=90	=90	=90-	=90	=90-	=90	=90	=90	=90	=90
8D/L	X 5	8D\L	.	(>4.A\	-e-	1A	-lei-	1ryy	.	4.a\	e-
8C/	.	8C\	.	.	.	.	.	.	.	.	.
8BB-/	X 7	8BB-\	.	.	.	.	.	.	.	.	.
8E-X/J	.	8E-\J	.	8B-\)	-lei-	.	.	.	.	8b-\	.
2F\	X 43	2F\	-lei-	2c\	-ſon.	.	.	.	.	2cc\	-lei-
=91	=91	=91	=91	=91-	=91	=91-	=91	=91	=91	=91-	=91
!LO:TX:a:t=P:problem:w źródle brak kreski końcowej	!	!	!	!	!	!LO:TX:a:t=P:problem:w źródle brak końcowej kreski taktowej	!	!	!	!	!
!LO:SIC:v=fermata również u dołu	!	!LO:TX:a:t=P:problem:w źródle brak kreski końcowej	!	!LO:SIC:v=fermata również u dołu	!	!LO:TX:a:t=P:problem:nuta o specyficznym kształcie	!	!	!	!LO:TX:a:t=P:problem:nuta o specyficznym kształcie	!
1BB-;;	.	1BB-;;	-ſon.	1B-;;	.	1B-	-ſon	1ryy	.	1b-	-ſon
==-	==-	==	==	==	==	==	==	==	==	==	==
*-	*-	*-	*-	*-	*-	*-	*-	*-	*-	*-	*-
!!!system-decoration: [g1]s6
!!!RDF**kern: > = above
!!!RDF**kern: < = below
!!!EED: Antoni Szymański
!!!EST: 2020-11-01
!!!ENC: Kamil Watkowski
!!!END: 2020-04-23
